24x24/actions/tag-new.svg

<svg height="24" width="24" xmlns="http://www.w3.org/2000/svg"><path d="m9 3-6 2 2 6 8 4v-2h3.5l2.5-5zm-6 2v6l8 8 2-2v-1.09l-9-4.91zm3.5 0c.831 0 1.5.669 1.5 1.5s-.669 1.5-1.5 1.5-1.5-.669-1.5-1.5.669-1.5 1.5-1.5zm9.5 9v2h-2v1h2v2h1v-2h2v-1h-2v-2z" fill="#555e70" transform="translate(1 1)"/></svg>

<svg xmlns="http://www.w3.org/2000/svg" width="24" height="24"><defs id="defs3051"><style type="text/css" id="current-color-scheme"></style></defs><path style="fill:currentColor;fill-opacity:1;stroke:none;color:#555e70" d="M9 3 3 5l2 6 8 4v-2h3.5L19 8 9 3zM3 5v6l8 8 2-2v-1.09L4 11 3 5zm3.5 0C7.331 5 8 5.669 8 6.5S7.331 8 6.5 8 5 7.331 5 6.5 5.669 5 6.5 5zm9.5 9v2h-2v1h2v2h1v-2h2v-1h-2v-2h-1z" transform="translate(1 1)"/></svg>
